X:116
T:The Sod of Turf We Took to School
B:Terry "Cuz" Teahan "Sliabh Luachra on Parade" 1980
Z:Patrick Cavanagh
M:2/4
L:1/8
R:Polka
K:G
| GE DE | GA Bd | eB dB | AG E2 | 
GE DE | GA Bd | eB dB | AG G2 :| 
| ed B/c/d | ed d2 | eg ed | BA GE | 
GE DE | GA Bd | eB dB | AG G2 :|| 

